**kern	**silbe	**kern	**silbe
*ICvox	*	*ICvox	*
=1	=1	=1	=1
*B:	*	*B:	*
*M4/4	*	*M4/4	*
*clefF4	*	*clefF4	*
1r	.	1r	.
=2	=2	=2	=2
1r	.	1r	.
=3	=3	=3	=3
1r	.	1r	.
=4	=4	=4	=4
1r	.	1r	.
=5	=5	=5	=5
1r	.	1r	.
=6	=6	=6	=6
1r	.	1r	.
=7	=7	=7	=7
1r	.	1r	.
=8	=8	=8	=8
8eq	_	.	.
[1f#	_	1r	.
=9	=9	=9	=9
*	*	*clefG2	*
.	.	16g#Q	_
.	.	16a#Q	_
1f#_	_	[1b	_
=10	=10	=10	=10
1f#]	_	1b]	_
=11	=11	=11	=11
8f#	la	8b	la
8d#	da	8b	da
8e	da	8b	da
[8f#	da,	[8b	da,
8f#]	_	8b]	_
8d#	da	8b	da
8e	da	8b	da
[8f#	da,	[8a#	da,
=12	=12	=12	=12
8f#]	_	8a#]	_
8d#	da	8a#	da
8e	da	8a#	da
[8f#	da,	[8a#	da,
8f#]	_	8a#]	_
8e	da	8a#	da
8d#	da	8a#	da
[8c#	da,	[8g#	da,
=13	=13	=13	=13
8c#]	_	8g#]	_
8B	da	8f#	da
8A#	da	8f#	da
8G#q	_	.	.
[8F#	da	[8f#	da
8F#]	_	8f#]	_
4F#	da	4e	da
8r	.	8r	.
=14	=14	=14	=14
1r	.	1r	.
=15	=15	=15	=15
8c#	da	8e	da
8c#	da	8e	da
8c#	da	8e	da
[8c#	da,	[8e	da,
8c#]	_	8e]	_
8c#	da	4f#	da
8c#	da	.	.
[8c#	da,	[8e	da,
=16	=16	=16	=16
8c#]	_	8e]	_
4B	da	4e	da
8B	da	8e	da
8r	.	8r	.
4B	da	4e	da
8A#	da	8e	da
=17	=17	=17	=17
6G#	da	6e	da
6F#	da	6d#	da
6F#	da	6d#	da
4F#	da	4d#	da
4r	.	4r	.
=18	=18	=18	=18
4r	.	1r	.
8B	Goo-	.	.
8A#	-dm-	.	.
8A#	-mor-	.	.
8Bq	_	.	.
[4.c#	-ning	.	.
=19	=19	=19	=19
8c#]	_	1r	.
8F#q	_	.	.
4G#	star-	.	.
[8F#	-shine	.	.
4F#]	_	.	.
4r	.	.	.
=20	=20	=20	=20
4r	.	1r	.
8.r	.	.	.
16E	The	.	.
8.c#	earth	.	.
[16d#	says	.	.
4d#_	_	.	.
=21	=21	=21	=21
8.d#]	_	1r	.
16c#	hel-	.	.
[4e	-lo!	.	.
4e]	_	.	.
4r	.	.	.
=22	=22	=22	=22
4r	.	1r	.
8c#	You	.	.
[8c#	twin	.	.
8c#]	_	.	.
4d#	kle	.	.
[8e	a	.	.
=23	=23	=23	=23
8e]	_	1r	.
8d#	bove	.	.
8c#	_	.	.
[8c#	us	.	.
4c#]	_	.	.
4r	.	.	.
=24	=24	=24	=24
4r	.	1r	.
8B	we	.	.
[8A#	twin	.	.
8A#]	_	.	.
[4.B	kle	.	.
=25	=25	=25	=25
8B]	_	1r	.
16B	be-	.	.
[16F#	-low	.	.
4F#_	_	.	.
4F#]	_	.	.
4r	.	.	.
=26	=26	=26	=26
4r	.	1r	.
8B	Good-	.	.
8A#	-dm-	.	.
8A#	-morn	.	.
8Bq	_	.	.
[4.c#	ning	.	.
=27	=27	=27	=27
8c#]	_	8r	.
8F#q	_	8f#q	_
4G#	star-	4g#	Star-
[8F#	-shine	[8f#	-shine!
4F#]	_	2f#_	_
4r	.	.	.
=28	=28	=28	=28
4r	.	1f#_	_
8r	.	.	.
8c#	You	.	.
8c#	lead	.	.
[8d#	us	.	.
8d#]	_	.	.
8c#	a-	.	.
=29	=29	=29	=29
2.e	-long	2f#_	_
.	.	8f#]	_
.	.	8r	.
4r	.	4r	.
=30	=30	=30	=30
4r	.	4r	.
4c#	My	4f#	My
4d#	love	4f#	love
4e	and	4g	and
=31	=31	=31	=31
.	.	8f#q	_
4d#	me	4g#	me
8d#	as	8g#	as
8c#	_	8f#	_
8d#	we	8g#	we
8c#	_	8f#	_
4B	sing-	4d#	sing-
=32	=32	=32	=32
*	*	*clefF4	*
2B	-ing	2e	-ing
4r	.	4r	.
4F#	our	4F#	our
=33	=33	=33	=33
*	*	*clefG2	*
4G#	ear-	4f	ear-
4B	-ly	4f	-ly
4A#	mor-	4e	mor-
4c#	-ning	4e	-ning
=34	=34	=34	=34
8B	sing-	8d#	sing-
8A#	-ging	8c#	-ging
[4B	song	[4d#	song
4B]	_	4d#]	_
8r	.	8r	.
8f	Gli	8f	Gli
=35	=35	=35	=35
*	*	*clefF4	*
8f#	_	8f#	_
8f#	ddy	8f#	ddy
8f#	gloop	8f#	gloop
8r	.	8r	.
8f#	gloo-	8f#	gloo-
8f#	-py	8f#	-py
8r	.	8r	.
8f	ni	8f	ni
=36	=36	=36	=36
8f#	_	8f#	_
8f#	bby	8f#	bby
8f#	no-	8f#	no-
8f#	-bby	8f#	-bby
8e	noo-	8e	noo-
8d#	-by	8d#	-by
8c#	la	8c#	la
[8B	la	[8B	la
=37	=37	=37	=37
8B]	_	8B]	_
4A#	la	4A#	la
[8F#	lo	[8F#	lo
8F#]	_	8F#]	_
[4.F#	lo	4.F#	lo
=38	=38	=38	=38
4.F#]	_	1r	.
8r	.	.	.
2r	.	.	.
=39	=39	=39	=39
8c#	Sa-	8c#	Sa-
8c#	-bby	8c#	-bby
8c#	si-	8c#	si-
8c#	-bby	8c#	-bby
8c#	sab-	8c#	sab-
8c#	-ba	8c#	-ba
8r	.	8r	.
8Bq	_	8Bq	_
[8c#	noo	[8c#	noo
=40	=40	=40	=40
8c#]	_	8c#]	_
8c#	by	8c#	by
8c#	ab-	8c#	ab-
8c#	-ba	8c#	-ba
8c#q	_	8c#q	_
4B	dab-	4B	dab-
8A#	-ba	8A#	-ba
[8F#	le	[8F#	le
=41	=41	=41	=41
8F#]	_	8F#]	_
4F#	le	4F#	le
8F#q	_	8F#q	_
[8G#	lo	[8G#	lo
8G#]	_	8G#]	_
[4.F#	lo	4.F#	lo
=42	=42	=42	=42
4F#]	_	1r	.
4r	.	.	.
2r	.	.	.
=43	=43	=43	=43
8G#	Doo-	8G#	_
8G#	-by	8G#	_
8G#	oo-	8G#	_
8G#	-by	8G#	_
8A#	wal-	8A#	_
8c#	-la	8c#	_
8r	.	8r	.
8A#q	_	8A#q	_
[8B	doo	[8B	_
=44	=44	=44	=44
8B]	_	8B]	_
8B	by	8B	_
8B	ab-	8B	_
8B	-ba	8B	_
8c#	dab-	8c#	_
8e	-ba	8e	_
4r	.	4r	.
=45	=45	=45	=45
*	*	*clefG2	*
8d#	ear-	8f#	_
8d#	-ly	8f#	_
16c#Q	_	.	.
16d#Q	_	.	.
8c#	mor-	8f#	_
8B	-ning	8f#	_
8c#	sing-	8f#	_
4B	-ing	4f#	_
8B	song	8d#	_
=46	=46	=46	=46
4r	.	1r	.
8B	Good-	.	.
8A#	-dm-	.	.
8A#	-mor	.	.
8Bq	_	.	.
[4.c#	ning,	.	.
=47	=47	=47	=47
*	*	*clefF4	*
8c#]	_	4r	.
4F#	star-	.	.
.	.	4F#	Star
[8F#	-shine	.	.
4F#]	_	2g#	_
4r	.	.	.
=48	=48	=48	=48
4r	.	[1f#	shine
8r	.	.	.
8c#	There's	.	.
6c#	love	.	.
6d#	in	.	.
[6c#	your	.	.
=49	=49	=49	=49
4c#]	_	1f#]	_
[4e	skies	.	.
4.e]	_	.	.
8r	.	.	.
=50	=50	=50	=50
*	*	*clefG2	*
4r	.	4r	.
8c#	re-	8f#	re-
[8c#	-flec	[8f#	-flec
8c#]	_	8f#]	_
4d#	ting	4f#	ting
[8e	the	[8f#	the
=51	=51	=51	=51
8e]	_	8f#]	_
8d#	sun	8f#	sun
8c#	_	8f#	_
[8c#	light	[8f#	light
8c#]	_	8f#]	_
8r	.	8r	.
4r	.	4r	.
=52	=52	=52	=52
4r	.	4r	.
8B	in	8f#	in
[8A#	my	[8f#	my
6A#]	_	6f#]	_
6B	lo-	6f#	lo-
[6F#	-ver's	[6e	-ver's
=53	=53	=53	=53
8F#]	_	8e]	_
[8F#	eyes	[8d#	eyes
4F#_	_	4d#]	_
4F#]	_	8e	_
.	.	8d#	_
4r	.	8c#	_
.	.	[8c#	_
=54	=54	=54	=54
4r	.	8c#]	_
.	.	8r	.
8B	Good-	4r	.
8A#	-dm-	.	.
8A#	-mor	2r	.
8F#q	_	.	.
[4.G#	ning,	.	.
=55	=55	=55	=55
8G#]	_	8r	.
8F#q	_	8f#q	_
4G#	star-	4g#	Star-
[8F#	-shine	[8f#	-shine
4F#]	_	2f#_	_
4r	.	.	.
=56	=56	=56	=56
4r	.	1f#_	_
8r	.	.	.
8c#	So	.	.
8c#	hap-	.	.
[8d#	-py	.	.
4d#_	_	.	.
=57	=57	=57	=57
8d#]	_	2f#_	_
16E	to	.	.
[16e	be	.	.
4e_	_	.	.
8e]	_	4.f#]	_
8r	.	.	.
4r	.	.	.
.	.	8r	.
=58	=58	=58	=58
4r	.	4r	.
4c#	my	4f#	my
4d#	love	4f#	love
4e	and	4g	and
=59	=59	=59	=59
8c#q	_	8f#q	_
4d#	me	4g#	me
8d#	as	8g#	as
8c#	_	8f#	_
8d#	we	8g#	we
8c#	_	8f#	_
4B	sing-	4d#	sing-
=60	=60	=60	=60
2B	-ing	2e	-ing
4r	.	4r	.
4F#	our	4B	our
=61	=61	=61	=61
4G#	ear-	4f	ear-
4B	-ly	4f	-ly
4A#	mor-	4e	mor-
4c#	-ning	4e	-ning
=62	=62	=62	=62
8B	sing-	8d#	sing-
8A#	-ing	8c#	-ing
[4B	song	[4d#	song
4B]	_	4d#]	_
4r	.	4r	.
=63	=63	=63	=63
1r	.	1r	.
=64	=64	=64	=64
*	*	*clefF4	*
8f#	Glid-	8f#	Glid-
8f#	-dy	8f#	-dy
8f#	gloop	8f#	gloop
8r	.	8r	.
8f#	gloo-	8f#	gloo-
8f#	-py	8f#	-py
8r	.	8r	.
8f	ni	8f	ni
=65	=65	=65	=65
8f#	_	8f#	_
8f#	bby	8f#	bby
8f#	no-	8f#	no-
8f#	-bby	8f#	-bby
8e	noo-	8e	noo-
8d#	-by	8d#	-by
8c#	la	8c#	la
[8B	la	[8B	la
=66	=66	=66	=66
8B]	_	8B]	_
4A#	la	4A#	la
[8F#	lo	[8F#	lo
8F#]	_	8F#]	_
[4.F#	lo	4.F#	lo
=67	=67	=67	=67
4F#]	_	1r	.
4r	.	.	.
2r	.	.	.
=68	=68	=68	=68
8c#	Sa-	8c#	Sa-
8c#	-bby	8c#	-bby
8c#	si-	8c#	si-
8c#	-bby	8c#	-bby
8c#	sab-	8c#	sab-
8c#	-ba	8c#	-ba
8r	.	8r	.
8Bq	_	8Bq	_
[8c#	noo	[8c#	noo
=69	=69	=69	=69
8c#]	_	8c#]	_
8c#	by	8c#	by
8c#	ab-	8c#	ab-
8c#	-ba	8c#	-ba
8c#q	_	8c#q	_
4B	dab-	4B	dab-
8A#	-ba	8A#	-ba
[8F#	le	[8F#	le
=70	=70	=70	=70
8F#]	_	8F#]	_
4F#	le	4F#	le
8F#	lo	8F#	lo
8r	.	8r	.
[4.F#	lo	4.F#	lo
=71	=71	=71	=71
8F#]	_	1r	.
8r	.	.	.
4r	.	.	.
2r	.	.	.
=72	=72	=72	=72
8G#	Doo-	8G#	Doo-
8G#	-by	8G#	-by
8G#	oo-	8G#	oo-
8G#	-by	8G#	-by
8A#	wal-	8A#	wal-
8c#	-la	8c#	-la
8r	.	8r	.
8A#q	_	8A#q	_
[8B	doo	[8B	doo
=73	=73	=73	=73
8B]	_	8B]	_
8B	by	8B	by
8B	ab-	8B	ab-
8B	-ba	8B	-ba
8c#	dab-	8c#	dab-
8e	-ba	8e	-ba
4r	.	8r	.
.	.	16e	ear
.	.	[16f#	_
=74	=74	=74	=74
8d#	ear-	8f#]	_
8d#	-ly	8f#	ly
16c#Q	_	.	.
16d#Q	_	.	.
8c#	mor-	8f#	mor-
8B	-ning	8f#	-ning
8c#	sing-	8f#	sing-
4B	-ing	4f#	-ing
8B	song!	8d#	song!
=75	=75	=75	=75
1r	.	1r	.
=76	=76	=76	=76
1r	.	1r	.
=77	=77	=77	=77
1r	.	1r	.
=78	=78	=78	=78
1r	.	1r	.
=79	=79	=79	=79
1r	.	1r	.
=80	=80	=80	=80
1r	.	1r	.
=81	=81	=81	=81
1r	.	1r	.
=82	=82	=82	=82
4r	.	4r	.
8F#	Can	8F#	Can
8F#	ya	8F#	ya
4G#	hear	4G#	hear
4g#	me	4g#	me
=83	=83	=83	=83
1f#	_	[1f#	_
=84	=84	=84	=84
8f#	sing-	1f#_	_
8d#	-ing	.	.
8d#	a	.	.
[8f#	song,	.	.
4f#]	_	.	.
8d#	_	.	.
[8f#	hum	.	.
=85	=85	=85	=85
8f#]	_	2.f#]	_
8f#	ming	.	.
8f#	a	.	.
8e	song?	.	.
12d#	_	.	.
[6c#	_	.	.
4c#]	_	4r	.
=86	=86	=86	=86
1r	.	8B	Sing-
.	.	[8A#	-ing
.	.	8A#]	_
.	.	4G#	a
.	.	[4.F#	song
=87	=87	=87	=87
1r	.	4F#]	_
.	.	4r	.
.	.	2r	.
=88	=88	=88	=88
8c#	Lo-	1r	.
8c#	-ving	.	.
8c#	a	.	.
[8c#	song	.	.
4c#]	_	.	.
4r	.	.	.
=89	=89	=89	=89
8c#	lau-	1r	.
8c#	-ghing	.	.
8c#	a	.	.
[8B	song	.	.
16B]	_	.	.
[8.A#	_	.	.
4A#]	_	.	.
=90	=90	=90	=90
8r	.	1r	.
8G#	sing-	.	.
8F#	-ing	.	.
8D#	the	.	.
4F#	song	.	.
4r	.	.	.
=91	=91	=91	=91
1r	.	1r	.
=92	=92	=92	=92
4G#	Sing	1r	.
8G#	the	.	.
[8A#	song	.	.
8A#]	_	.	.
[8c#	_	.	.
8c#]	_	.	.
8r	.	.	.
=93	=93	=93	=93
4B	song	1r	.
8B	a'	.	.
[8c#	sing	.	.
8c#]	_	.	.
[8e	_	.	.
8e]	_	.	.
8r	.	.	.
=94	=94	=94	=94
*	*	*clefG2	*
4d#	song	4f#	song
4d#	song	4f#	song
4d#	song	4f#	song
8e	sing,	8g#	sing,
[8c#	_	[8e	_
=95	=95	=95	=95
4c#]	_	4e]	_
4c#	sing	4e	sing
4c#	sing	4e	sing
8d#	sing	8f#	sing
[8c#	_	[8e	_
=96	=96	=96	=96
8c#]	_	8e]	_
16d#	song	16f#	song
16c#	_	16e	_
[4B	_	[4d#	_
4.B]	_	4.d#]	_
8r	.	8r	.
=97	=97	=97	=97
1r	.	1r	.
=98	=98	=98	=98
4d#	song	4f#	song
4d#	song	4f#	song
4d#	song	4f#	song
8e	sing,	8g#	sing,
[8c#	_	[8e	_
=99	=99	=99	=99
4c#]	_	4e]	_
4c#	sing	4e	sing
4c#	sing	4e	sing
8d#	sing	8f#	sing
[8c#	_	[8e	_
=100	=100	=100	=100
4c#]	_	4e]	_
16d#	song!	16f#	song!
16c#	_	16e	_
[8B	_	[8d#	_
2B]	_	2d#]	_
=101	=101	=101	=101
1r	.	1r	.
=102	=102	=102	=102
*clefG2	*	*	*
16d#	Sing,	1r	.
16c#	_	.	.
[8B	_	.	.
4B]	_	.	.
12b	sing,	.	.
12g#	_	.	.
[12f#	_	.	.
8f#]	_	.	.
16d#	song	.	.
16c#	_	.	.
=103	=103	=103	=103
*clefF4	*	*	*
2B	_	1r	.
8G#q	_	.	.
4F#	sing	.	.
8F#	a	.	.
8Eq	_	.	.
[8D#	song	.	.
=104	=104	=104	=104
2D#]	_	1r	.
2r	.	.	.
=105	=105	=105	=105
*clefG2	*	*	*
4r	.	1r	.
8r	.	.	.
[8b	Yeah,	.	.
8b]	_	.	.
4g#	you	.	.
[8f#	can	.	.
=106	=106	=106	=106
*clefF4	*	*	*
8f#]	_	[2.f#	Sing
4d#	sing	.	.
8c#	a'	.	.
16d#	sing	.	.
16c#	_	.	.
[8B	_	.	.
8B]	_	8f#]	_
8c#q	_	.	.
[8d#	sing	8r	.
=107	=107	=107	=107
8.d#]	_	[2c#	song
[16B	song	.	.
4B]	_	.	.
8r	.	8c#]	_
8G#	sing	8r	.
8B	a	4r	.
16d#	song	.	.
16c#	_	.	.
=108	=108	=108	=108
2B	_	1d#	sing!
2r	.	.	.
=109	=109	=109	=109
1r	.	1r	.
=110	=110	=110	=110
8B	Sing	[2f#	Sing
[8c#	_	.	.
8c#]	_	.	.
8d#	a'	.	.
4d#	sing	8f#]	_
.	.	8r	.
8e	a	4r	.
[8c#	song	.	.
=111	=111	=111	=111
4c#]	_	2c#	song
4r	.	.	.
8F#q	_	.	.
4G#	sing	2r	.
8B	a	.	.
8d#	song	.	.
=112	=112	=112	=112
8e	_	1d#	sing!
16d#	_	.	.
16c#	_	.	.
[4B	_	.	.
4B]	_	.	.
4r	.	.	.
=113	=113	=113	=113
1r	.	1r	.
=114	=114	=114	=114
8eq	_	8eq	_
[1f#	Sing	[1f#	Sing
=115	=115	=115	=115
8f#]	_	8f#]	_
8r	.	8r	.
4r	.	4r	.
2r	.	2r	.
*-	*-	*-	*-
!!!ENC: Nathaniel Condit-Schultz